X:1
T:Title
%%score { 1 | ( 2 3 ) }
L:1/8
Q:1/4=92
M:4/4
K:Eb
V:1 treble nm="Grand Piano"
V:2 bass 
V:3 bass 
V:1
 [GB][GB][_G=A][=GB] [Ge]2 [GB]2 | GGAc B4 | [DB][DA][DG][DF] [EG][GB] [Ge]2 | %3
w: Adam~Geibel * * * * *|||
 [Fd][Ge][Ec][Fd] [DB]4 | [FA][DF][EG][FA] [EG][FA] [GB]2 | ccB[DF] [EG]4 | %6
w: |||
 [Ge][EG][FA][GB] [Bd]2 c2 | Bc[FA][DB] G2 B2 |[M:9/8] [Ge][EG][EA] [EB] [Ed]2 [Ec]3 | %9
w: |||
[M:4/4] [EB][EG][DG][DF] E4 |] %10
w: |
V:2
 [E,B,][E,B,][E,C][E,B,] [E,B,]2 [E,E]2 | [E,B,E][E,_DE][E,CE][E,A,E] [E,G,E]4 | %2
 [B,,F,][B,,B,][B,,B,][B,,B,] [E,B,]2 [E,B,]2 | [F,B,][F,B,][F,=A,][F,A,] [B,,B,]4 | %4
 [B,,B,][B,,B,][B,,B,][B,,B,] [E,B,]2 [E,E]2 | [A,EA][A,EA][B,G][K:bass][B,,B,] [E,B,]4 | %6
 [E,B,][E,B,][E,E][E,E][K:treble] [A,E]2 [A,EA]2 | z4[K:bass] _E2 z2 | %8
[M:9/8] [E,B,][_D,B,][C,A,] [B,,G,] [G,,A,]2 [=A,,_G,]3 | %9
[M:4/4] [B,,G,][B,,B,][B,,B,][B,,A,] [E,G,]4 |] %10
V:3
 x8 | x8 | x8 | x8 | x8 | x3[K:bass] x5 | x4[K:treble] x4 | %7
 [B,G][K:bass][B,=E][B,,B,][B,,B,] [E,B,]2- [E,B,G]2 |[M:9/8] x9 |[M:4/4] x8 |] %10

